dist/assets/images/modals/thanksIco.svg

<svg width="48" height="48" viewBox="0 0 48 48" fill="none" xmlns="http://www.w3.org/2000/svg">
<g clip-path="url(#clip0_708_8174)">
<path d="M0.5 24C0.5 11.042 11.042 0.5 24 0.5C36.958 0.5 47.5 11.042 47.5 24C47.5 36.958 36.958 47.5 24 47.5C11.042 47.5 0.5 36.958 0.5 24Z" stroke="#785D4C"/>
<path d="M20.2024 33C19.9605 33 19.7285 32.903 19.5577 32.7292L13.2669 26.3292C12.911 25.9672 12.911 25.3807 13.2669 25.0187C13.6227 24.6567 14.1991 24.6567 14.5549 25.0187L20.2024 30.7629L34.4451 16.2715C34.8009 15.9095 35.3773 15.9095 35.7331 16.2715C36.089 16.6335 36.089 17.2199 35.7331 17.5819L20.8458 32.7278C20.675 32.903 20.4444 33 20.2024 33Z" fill="#785D4C"/>
</g>
<defs>
<clipPath id="clip0_708_8174">
<rect width="48" height="48" fill="white"/>
</clipPath>
</defs>
</svg>

<svg width="48" height="48" fill="none" xmlns="http://www.w3.org/2000/svg"><g clip-path="url(#clip0_708_8174)"><path d="M.5 24C.5 11.042 11.042.5 24 .5S47.5 11.042 47.5 24 36.958 47.5 24 47.5.5 36.958.5 24z" stroke="#785D4C"/><path d="M20.202 33a.903.903 0 01-.644-.27l-6.291-6.4a.938.938 0 010-1.311.9.9 0 011.288 0l5.647 5.744L34.445 16.27a.9.9 0 011.288 0 .938.938 0 010 1.31L20.846 32.729a.896.896 0 01-.644.272z" fill="#785D4C"/></g><defs><clipPath id="clip0_708_8174"><path fill="#fff" d="M0 0h48v48H0z"/></clipPath></defs></svg>
